X:1
T:Mein Heiland, 89.89.88.99.88
T:Mein Heiland, 89.89.88.99.88
T:Musikalischer Christenschatz (Base
T:Public Domain Courtesy of the Cyber Hymnal™
C:Musikalischer Christenschatz (Base
Z:Public Domain
Z:Courtesy of the Cyber Hymnal™
%%score ( 1 2 ) ( 3 4 )
L:1/8
Q:1/4=115
M:4/4
K:F
V:1 treble 
V:2 treble 
V:3 bass 
V:4 bass 
V:1
 z2 [FA]2 [Fc]2 [Gc]2 | [Fc]2 [Dd]2 [CA]2 [CG]2 | [A,F]2 z [CG] [CA]2 [CG]2 | %3
 [CA]2 [F=B]2 [Cc]2 [DF]2 | ([CE]2 [=B,D]2) C4 | z2 [CA]2 [Fc]2 [Gc]2 | [Fc]2 [Dd]2 [CA]2 [CG]2 | %7
 [A,F]2 z [A,G] [CA]2 [CG]2 | [CA]2 [F=B]2 [Cc]2 [DF]2 | ([CE]2 [=B,D]2) C4 | %10
 z2 [CG]2 [DG]2 [CA]2 | [B,B]2 [DB]2 [_EA]2 [DA]2 | [B,G]4 z2 [DB]2 | [DB]2 [EB]2 [FA]2 (GF) | %14
 [CE]2 [A,F]2 [CG]4 | z2 [A,A]2 [A,F]2 [^CE]2 | D2 [B,E]2 [A,D]2 [A,^C]2 | [A,D]2 [A,D]2 z2 [DA]2 | %18
 [^CA]2 [EG]2 [DF]2 [EG]2 | [DF]2 [^CE]2 [A,D]2 [A,D]2 | z2 C2 [DF]2 [DF]2 | %21
 [CF]2 (EF) [CG]2 [DG]2 | [CG]4 z2 [Gc]2 | [FA]2 [EG]2 F2 [FB]2 | [FA]2 [EG]2 [CF]2 z [DA] | %25
 [Cc]2 [FA]2 [DF]2 [GB]2 | A4 G4 | [CF]8 |] %28
V:2
 x8 | x8 | x8 | x8 | x4 C4 | x8 | x8 | x8 | x8 | x4 C4 | x8 | x8 | x8 | x6 D2 | x8 | x8 | D2 x6 | %17
 x8 | x8 | x8 | x2 C2 x4 | x2 C2 x4 | x8 | x4 F2 x2 | x8 | x8 | (G2 F2) (F2 E2) | x8 |] %28
V:3
 z2 [F,C]2 [F,A,]2 [E,C]2 | [F,A,]2 [B,,F,]2 [C,F,]2 [C,E,]2 | [F,,F,]2 z [C,E,] F,2 [E,G,]2 | %3
 F,2 [D,G,]2 [E,G,]2 [F,A,]2 | G,4 [C,E,]4 | z2 F,2 [F,A,]2 [E,C]2 | %6
 [F,A,]2 [B,,F,]2 [C,F,]2 [C,E,]2 | [F,,F,]2 z [C,E,] F,2 [E,G,]2 | F,2 [D,G,]2 [E,G,]2 [F,A,]2 | %9
 G,4 [C,E,]4 | z2 [C,E,]2 [B,,D,]2 [A,,^F,]2 | [G,,G,]2 [B,,G,]2 [C,G,]2 [D,^F,]2 | %12
 [G,,G,]4 z2 [G,,G,]2 | [B,,G,]2 [G,,B,]2 [F,,C]2 [B,,B,]2 | [C,G,]2 [D,F,]2 [C,E,]4 | %15
 z2 [^C,E,]2 [D,F,]2 [A,,A,]2 | [B,,F,]2 [G,,G,]2 [A,,F,]2 [A,,E,]2 | [D,F,]2 [D,F,]2 z2 [D,F,]2 | %18
 [A,,E,]2 [^C,A,]2 [D,A,]2 [G,,B,]2 | [A,,A,]2 [A,,A,]2 [D,F,]2 [D,F,]2 | %20
 z2 [E,G,]2 [D,A,]2 [B,,B,]2 | [A,,F,]2 G,2 [E,G,]2 [=B,,G,]2 | [C,E,]4 z2 [E,C]2 | %23
 [F,C]2 [C,C]2 [D,A,]2 [B,,D]2 | [C,C]2 [C,C]2 [F,A,]2 z [D,F,] | [E,G,]2 [F,C]2 [B,,B,]2 [G,,D]2 | %26
 [A,,C]4 [C,C]4 | [F,,A,]8 |] %28
V:4
 x8 | x8 | x4 F,2 x2 | F,2 x6 | (G,2 G,,2) x4 | x2 F,2 x4 | x8 | x4 F,2 x2 | F,2 x6 | %9
 (G,2 G,,2) x4 | x8 | x8 | x8 | x8 | x8 | x8 | x8 | x8 | x8 | x8 | x8 | x2 (C,D,) x4 | x8 | x8 | %24
 x8 | x8 | x8 | x8 |] %28

